!!!!SEGMENT: pl-cz--iii-623--001-001_raszek-waclaw--nieszpory-dixit-dominus.krn
!!!cenid: 18xx:1004
!!!COM: Raszek, Wacław
!!!COM-rismid: pe30020314
!!!CDT: >1848->1848
!!!CNT:
!!!OPR: Nieszpory
!!!OTL: Dixit Dominus
!!!OMV: 001
!!!PDT:
!!!AGN: Sacred
!!!OMD: Largo
!!!SMS-siglum: PL-CZ
!!!SMS-shelfmark: III-623
!!!SMS-shelfwork: 001-001 M
!!!SMS-variant:
!!!SMS-altvar:
!!!NIFC-rismid: 300001052
!!!URL-scan: http://repozytorium.nifc.pl/skany/pl-cz-nut--iii-623
!!!ONB-nifc: UWAGA: części Nieszporów: Dixit Dominus, Confitebor, Beatus vir, Laudate pueri, In exitu, Laudate Dominum, Iste confessor, Magnificat, Salve Regina. Uwaga: w Canto 1,2 i Tenorze zaburzona kolejność części
**kern	**kern	**text	**text	**text	**kern	**text	**text	**text	**kern	**text	**text	**text	**kern	**text	**text	**text	**kern	**kern
*part7	*part6	*part6	*part6	*part6	*part5	*part5	*part5	*part5	*part4	*part4	*part4	*part4	*part3	*part3	*part3	*part3	*part2	*part1
*staff7	*staff6	*staff6	*staff6	*staff6	*staff5	*staff5	*staff5	*staff5	*staff4	*staff4	*staff4	*staff4	*staff3	*staff3	*staff3	*staff3	*staff2	*staff1
*Ibass	*Iempty	*	*	*	*Itenor	*	*	*	*Ivox	*	*	*	*Ivox	*	*	*	*Iempty	*Iempty
*I"Basso	*I"Baſso.	*	*	*	*I"Tenore	*	*	*	*I"Canto Secondo	*	*	*	*I"Canto Primo	*	*	*	*I"Clarinetto Secondo. in C:	*I"Clarinetto Primo in C:
*I'Org.	*I'B.	*	*	*	*I'T.	*	*	*	*I'C. II	*	*	*	*I'C. I	*	*	*	*I'Cl. II in C	*I'Cl. I in C:
*clefF4	*clefF4	*	*	*	*clefC4	*	*	*	*clefC1	*	*	*	*clefC1	*	*	*	*clefG2	*clefG2
*k[f#]	*k[f#]	*	*	*	*k[f#]	*	*	*	*k[f#]	*	*	*	*k[f#]	*	*	*	*k[f#]	*k[f#]
*G:	*G:	*	*	*	*G:	*	*	*	*G:	*	*	*	*G:	*	*	*	*G:	*G:
*M2/2	*M2/2	*	*	*	*M2/2	*	*	*	*M2/2	*	*	*	*M2/2	*	*	*	*M2/2	*M2/2
*met(c|)	*met(c|)	*	*	*	*met(c|)	*	*	*	*met(c|)	*	*	*	*met(c|)	*	*	*	*met(c|)	*met(c|)
=1	=1	=1	=1	=1	=1	=1	=1	=1	=1	=1	=1	=1	=1	=1	=1	=1	=1	=1
*	*2\right	*	*	*	*2\right	*	*	*	*	*	*	*	*2\right	*	*	*	*	*
!LO:TX:rj:a:t=Dixit Dominus.	!LO:TX:a:t=Dixit Dominus.	!	!	!	!LO:TX:a:t=Psalm \nDixit Dominus	!	!	!	!LO:TX:a:t=Dixit Dominus.	!	!	!	!LO:TX:a:rj:t=Dixit Dominus.	!	!	!	!LO:TX:a:rj:t=Dixit Dominus.	!LO:TX:a:rj:t=Dixit Dominus.
!LO:TX:rj:a:t=Largo.	!LO:TX:a:t=Tempo \nLargo	!	!	!	!LO:TX:rj:a:t=Tempo \nLargo	!	!	!	!LO:TX:a:t=Tempo \nLargo	!	!	!	!LO:TX:a:t=Tempo Largo.	!	!	!	!LO:TX:a:t=Largo.	!LO:TX:a:t=Largo
4GG/	2G\	Rzekł	Ber-	Sko-	2B\	Rzekł	Ber-	Sko-	2d/	Rzekł	Ber-	Sko-	2g\	Rzekł	Ber-	Sko-	4b\	(8gg\L
.	.	.	.	.	.	.	.	.	.	.	.	.	.	.	.	.	.	8dd\)
4G\	.	.	.	.	.	.	.	.	.	.	.	.	.	.	.	.	4dd\	8dd'\
.	.	.	.	.	.	.	.	.	.	.	.	.	.	.	.	.	.	8dd'\J
4D\	4D\	Pan	-ło	-ro	4d\	Pan	-ło	-ro	4f#/	Pan	-ło	-ro	4a\	Pan	-ło	-ro	4ff#\	(8aa\L
.	.	.	.	.	.	.	.	.	.	.	.	.	.	.	.	.	.	8dd\)
4DD/	4D\	do	twey	roz-	4d\	do	twey	roz-	4f#/	do	twey	roz-	4a\	do	twey	ro-	4dd\	8dd'\
.	.	.	.	.	.	.	.	.	.	.	.	.	.	.	.	.	.	8dd'\J
=2	=2	=2	=2	=2	=2	=2	=2	=2	=2	=2	=2	=2	=2	=2	=2	=2	=2	=2
*	*	*	*	*	*	*	*	*	*2\right	*	*	*	*	*	*	*	*	*
4GG/	2GG/	Pa-	mo-	-po-	2d\	Pa-	mo-	-po-	2g\	Pa-	mo-	-po-	2b\	Pa-	mo-	-zpo-	4dd\	(8bb\L
.	.	.	.	.	.	.	.	.	.	.	.	.	.	.	.	.	.	8gg\)
4BB/	.	.	.	.	.	.	.	.	.	.	.	.	.	.	.	.	4b\	8dd'\
.	.	.	.	.	.	.	.	.	.	.	.	.	.	.	.	.	.	8dd'\J
4D\	2G\	-na	-cy	-czniesz	2d\	-na	-cy	-czniesz	2g\	-na	-cy	-czniesz	2b\	-na	-cy	-czniesz	4b\	(8cc#X\L
.	.	.	.	.	.	.	.	.	.	.	.	.	.	.	.	.	.	8dd\
4G\	.	.	.	.	.	.	.	.	.	.	.	.	.	.	.	.	8dd\L	8gg\
.	.	.	.	.	.	.	.	.	.	.	.	.	.	.	.	.	8gg\J	8bb\J)
!	!	!	!	!	!LO:LB:g=original	!	!	!	!LO:LB:g=original	!	!	!	!LO:LB:g=original	!	!	!	!	!
=3	=3	=3	=3	=3	=3	=3	=3	=3	=3	=3	=3	=3	=3	=3	=3	=3	=3	=3
4F#\	2F#\	me-	wy-	twe	2d\	me-	wy-	twe	2a\	me-	wy-	twe	2cc\	me-	wy-	twe	8aa\L	8ccc\L
.	.	.	.	.	.	.	.	.	.	.	.	.	.	.	.	.	8dd\	8dd\
4D\	.	.	.	.	.	.	.	.	.	.	.	.	.	.	.	.	8ff#\	8aa\
.	.	.	.	.	.	.	.	.	.	.	.	.	.	.	.	.	8aa\J	8ccc\J
4G\	4G\	-go	-dam	pa-	4d\	-go	-dam	pa-	4g\	-go	-dam	pa-	4b\	-go	-dam	pa-	8gg\L	8bb\L
.	.	.	.	.	.	.	.	.	.	.	.	.	.	.	.	.	8b\	8dd\
4GG/	4G\	łas-	sy-	-non-	4d\	łas-	sy-	-no-	4g\	ła-	sy-	-no-	4b\	ła-	zSy-	-no-	8dd\	8gg\
.	.	.	.	.	.	.	.	.	.	.	.	.	.	.	.	.	8gg\J	8bb\J
!	!LO:LB:g=original	!	!	!	!	!	!	!	!	!	!	!	!	!	!	!	!	!LO:LB:g=original
=4	=4	=4	=4	=4	=4	=4	=4	=4	=4	=4	=4	=4	=4	=4	=4	=4	=4	=4
4D\	2D/	-ka-	-o-	-wa-	2d\	-ka-	-o-	-wa-	2f#/	-ska-	-o-	-wa-	2a\	-ska-	-o-	-wa-	4ff#\	8aa\L
.	.	.	.	.	.	.	.	.	.	.	.	.	.	.	.	.	.	8gg\
4DD/	.	.	.	.	.	.	.	.	.	.	.	.	.	.	.	.	4dd\	8ff#\
.	.	.	.	.	.	.	.	.	.	.	.	.	.	.	.	.	.	8ee\J
4D\	4D/	-wym	-nu	-nie	4d\	-wym	-nu	-nie	4g/	-wym	-nu	-nie	4b\	-wym	-ni	-nie	4b\	4dd\
4C\	4C/	swym	Swiat	przy	4A\	swym	Swiat	przy	4a/	swym	Swiat	przy	4cc\	swym	Świat	Przy	4a\	4r
!LO:LB:g=original	!	!	!	!	!	!	!	!	!	!	!	!	!	!	!	!	!LO:LB:g=original	!
=5	=5	=5	=5	=5	=5	=5	=5	=5	=5	=5	=5	=5	=5	=5	=5	=5	=5	=5
4BB/	2BB/	gło-	ca-	to-	2B\	gło-	ca-	to-	2g\	gło-	ca-	to-	2dd\	gło-	ca-	to-	4g/	8r
.	.	.	.	.	.	.	.	.	.	.	.	.	.	.	.	.	.	8dd\L
4D/	.	.	.	.	.	.	.	.	.	.	.	.	.	.	.	.	4b/	8gg\
.	.	.	.	.	.	.	.	.	.	.	.	.	.	.	.	.	.	8dd\J
4G\	2G\	-sem	-ły	-bie	2d\	-sem	-ły	-bie	2g\	-sem	-ły	-bie	2b\	-sem	-ły	-bie	4dd/	8bb\L
.	.	.	.	.	.	.	.	.	.	.	.	.	.	.	.	.	.	8gg\
4GG/	.	.	.	.	.	.	.	.	.	.	.	.	.	.	.	.	4gg/	8ddd\
.	.	.	.	.	.	.	.	.	.	.	.	.	.	.	.	.	.	8bb\J
=6	=6	=6	=6	=6	=6	=6	=6	=6	=6	=6	=6	=6	=6	=6	=6	=6	=6	=6
!!pagebreak:original
4D\	2D\	siądz	pa-	lud	2d\	siądz	pa-	lud	2f#/	siądz	po-	lud	2a\	siądz	pa-	lud	4ff#\	8aa\L
.	.	.	.	.	.	.	.	.	.	.	.	.	.	.	.	.	.	8dd\
4DD/	.	.	.	.	.	.	.	.	.	.	.	.	.	.	.	.	8dd\L	8ff#\
.	.	.	.	.	.	.	.	.	.	.	.	.	.	.	.	.	8ee\J	8gg\J
4D\	4D\	mi	-dnie	twóy	4d\	mi	-dnie	twóy	4f#/	mi	-dnie	twóy	4a\	mi	-dnie	twóy	8ff#\L	8aa\L
.	.	.	.	.	.	.	.	.	.	.	.	.	.	.	.	.	8dd\	8ff#\
4D\	4D\	przy	u	wja-	4d\	przy	u	wja-	4g/	przy	u	wja-	4b\	przy	u	w ja-	8gg\	8bb\
.	.	.	.	.	.	.	.	.	.	.	.	.	.	.	.	.	8dd\J	8gg\J
!	!	!	!	!	!LO:LB:g=original	!	!	!	!LO:LB:g=original	!	!	!	!LO:LB:g=original	!	!	!	!	!
=7	=7	=7	=7	=7	=7	=7	=7	=7	=7	=7	=7	=7	=7	=7	=7	=7	=7	=7
4D\	(2D\	bo-	twe-	-sno-	(2d\	bo-	twe-	-sno-	(>2f#/	bo-	twe-	-sno-	(2a\	Bo-	twe-	-sno-	8ff#\L	8aa\L
.	.	.	.	.	.	.	.	.	.	.	.	.	.	.	.	.	8dd\	8ff#\
4F#\	.	.	.	.	.	.	.	.	.	.	.	.	.	.	.	.	8ff#\	8aa\
.	.	.	.	.	.	.	.	.	.	.	.	.	.	.	.	.	8dd\J	8ff#\J
4G\	4G\)	.	.	.	4B\)	.	.	.	4g/)	.	.	.	4b\)	.	.	.	4b/	8gg\L
.	.	.	.	.	.	.	.	.	.	.	.	.	.	.	.	.	.	8ee\
4A\	4A\	-ku	-go	-śći	4A\	-ku	-go	-śći	4e/	-ku	-go	-śći	4cc#X\	-ku	-go	-ści	4g/	8cc#X\
.	.	.	.	.	.	.	.	.	.	.	.	.	.	.	.	.	.	8ee\J
=8	=8	=8	=8	=8	=8	=8	=8	=8	=8	=8	=8	=8	=8	=8	=8	=8	=8	=8
*	*	*	*	*	*	*	*	*	*	*	*	*	*	*	*	*	*2\right	*
4r	2AA/	pra-	tro-	sta-	2A\	pra-	tro-	sta-	2g/	pra-	tro-	sta-	2ee\	pra-	tro-	sta-	2cc#X\	8r
.	.	.	.	.	.	.	.	.	.	.	.	.	.	.	.	.	.	8eesS\L
4AA/	.	.	.	.	.	.	.	.	.	.	.	.	.	.	.	.	.	8gg\
.	.	.	.	.	.	.	.	.	.	.	.	.	.	.	.	.	.	8ee\J
4D\	4D/	-wym	-nu	-nie	4A\	-wym	-nu	-nie	4f#/	-wym	-nu	-nie	4dd\	-wym	-nu	-nie	4dd\	4dd\
4DD/	4r	.	.	.	4r	.	.	.	4r	.	.	.	4r	.	.	.	4r	4r
!	!LO:LB:g=original	!	!	!	!	!	!	!	!	!	!	!	!	!	!	!	!	!LO:LB:g=original
=9	=9	=9	=9	=9	=9	=9	=9	=9	=9	=9	=9	=9	=9	=9	=9	=9	=9	=9
4AA/	2A\	Aż	A	Nim	2A\	Aż	A	Nim	2e/	Aż	A	Nim	2cc\	Aż	A	Nim	8r	8r
.	.	.	.	.	.	.	.	.	.	.	.	.	.	.	.	.	8a/L	8cc\L
4A\	.	.	.	.	.	.	.	.	.	.	.	.	.	.	.	.	8a/	8cc\
.	.	.	.	.	.	.	.	.	.	.	.	.	.	.	.	.	8a/J	8cc\J
2r	4A\	two-	ty	iesz-	4B\	two-	ty	iesz-	4d/	two-	ty	iesz-	4dd\	two-	ty	iesz-	4b/	(8dd\L
.	.	.	.	.	.	.	.	.	.	.	.	.	.	.	.	.	.	8b\)
.	4AA/	-je	u-	-cze	4c\	-je	u-	-cze	4e/	-je	u-	-cze	4ee\	-je	u-	-cze	4cc/	(8ee\
.	.	.	.	.	.	.	.	.	.	.	.	.	.	.	.	.	.	8cc\J)
!	!	!	!	!	!	!	!	!	!LO:LB:g=original	!	!	!	!LO:LB:g=original	!	!	!LO:LB:g=original	!	!
=10	=10	=10	=10	=10	=10	=10	=10	=10	=10	=10	=10	=10	=10	=10	=10	=10	=10	=10
4DD/	(2D\	wszyst-	-ży-	zo-	2.d\	Wszyst-	-ży-	zo-	(2f#/	wszyst-	-ży-	zo-	2.a\	wſzyst-	-ży-	zo-	2f#/	8r
.	.	.	.	.	.	.	.	.	.	.	.	.	.	.	.	.	.	8a\L
4D\	.	.	.	.	.	.	.	.	.	.	.	.	.	.	.	.	.	8dd\
.	.	.	.	.	.	.	.	.	.	.	.	.	.	.	.	.	.	8ff#\J
4E\	4E\)	.	.	.	.	.	.	.	4g/)	.	.	.	.	.	.	.	4dd/	(8aa\L
.	.	.	.	.	.	.	.	.	.	.	.	.	.	.	.	.	.	8ff#\
4F#\	4F#\	-kie	-wac	-rzy	4d\	-kie	-wać	-rzy	4a/	-kie	-wać	-rzy	4cc\	-kie	-wać	-rzy	4a/	8dd\
.	.	.	.	.	.	.	.	.	.	.	.	.	.	.	.	.	.	8cc\J)
!LO:LB:g=original	!	!	!	!	!LO:LB:g=original	!	!	!	!	!	!	!	!	!	!	!	!	!
=11	=11	=11	=11	=11	=11	=11	=11	=11	=11	=11	=11	=11	=11	=11	=11	=11	=11	=11
4G\	2G\	zu-	bę-	swie-	2d\	Zu-	bę-	swie-	2g\	zu-	bę-	swie-	2b\	zu-	bę-	swie-	(8g\L	(8b\L
.	.	.	.	.	.	.	.	.	.	.	.	.	.	.	.	.	8b\	8dd\
4GG/	.	.	.	.	.	.	.	.	.	.	.	.	.	.	.	.	8dd\	8gg\
.	.	.	.	.	.	.	.	.	.	.	.	.	.	.	.	.	8gg\J)	8bb\J)
4r	4GG/	-chwa-	-dziesz	-cić	4c\	-chwa-	-dziesz	-cić	4a\	-chwa-	-dziesz	-ćić	4cc\	-chwa-	-dziesz	-ćić	(8aa\L	(8ccc\L
.	.	.	.	.	.	.	.	.	.	.	.	.	.	.	.	.	8ff#\)	8aa\
4GG/	4BB/	-łe	praw	ka-	4B\	-łe	praw	ka-	4g\	-łe	praw	ka-	4dd\	-łe	praw	ka-	(8bb\	8ddd\
.	.	.	.	.	.	.	.	.	.	.	.	.	.	.	.	.	8gg\J)	8bb\J)
=12	=12	=12	=12	=12	=12	=12	=12	=12	=12	=12	=12	=12	=12	=12	=12	=12	=12	=12
!!pagebreak:original
4D\	2D\	wro-	swo-	-za-	(4G\	Wro-	swo-	-za-	2g\	Wro-	swo-	-za-	2b\	wro-	swo-	-za-	(8b\L	(8dd\L
.	.	.	.	.	.	.	.	.	.	.	.	.	.	.	.	.	8dd\	8gg\
4DD/	.	.	.	.	4B\)	.	.	.	.	.	.	.	.	.	.	.	8gg\	8bb\
.	.	.	.	.	.	.	.	.	.	.	.	.	.	.	.	.	8bb\J)	8ddd\J)
4D\	4D\	-gi	-ich	-łem	4d\	-gi	-ich	-łem	4f#\	-gi	-ich	-łem	4a\	-gi	-ich	-łem	(8aa\L	(8ccc\L
.	.	.	.	.	.	.	.	.	.	.	.	.	.	.	.	.	8ff#\	8aa\
4r	4r	.	.	.	4r	.	.	.	4r	.	.	.	4r	.	.	.	8cc\	8ff#\)
.	.	.	.	.	.	.	.	.	.	.	.	.	.	.	.	.	8a\J)	8cc\J
!	!LO:LB:g=original	!	!	!	!	!	!	!	!LO:LB:g=original	!	!	!	!LO:LB:g=original	!	!	!	!	!LO:LB:g=original
=13	=13	=13	=13	=13	=13	=13	=13	=13	=13	=13	=13	=13	=13	=13	=13	=13	=13	=13
4GG/	2G\	Dam	Wsród	Cie-	2B\	Dam	Wśród	Cie-	2d/	Dam	Wśród	Cie-	2g\	Dam	Wśród	Cie-	8g/L	(8b\L
.	.	.	.	.	.	.	.	.	.	.	.	.	.	.	.	.	8d/	8dd\)
!	!	!	!	!	!	!	!	!	!	!	!	!	!	!	!	!	!	!LO:TX:a:t=|
4BB/	.	.	.	.	.	.	.	.	.	.	.	.	.	.	.	.	8B/	8gg\
!	!	!	!	!	!	!	!	!	!	!	!	!	!	!	!	!	!	!LO:TX:a:t=|
.	.	.	.	.	.	.	.	.	.	.	.	.	.	.	.	.	8B/J	8gg\J
4D/	4D\	za	nie-	-bie	4c\	za	nie-	-bie	4f#/	za	nie-	-bie	4a\	za	nie-	-bie	8A/L	8dd\L
.	.	.	.	.	.	.	.	.	.	.	.	.	.	.	.	.	8d/	8ff#\
4F#/	4D\	pod-	-przy-	zwnę-	4d\	pod-	-przy-	zwne-	4f#/	pod-	-przy-	zwnę-	4a\	pod-	-przy-	z wnę-	8f#/	8aa\
.	.	.	.	.	.	.	.	.	.	.	.	.	.	.	.	.	8f#/J	8aa\J
!	!	!	!	!	!LO:LB:g=original	!	!	!	!	!	!	!	!	!	!	!	!LO:LB:g=original	!
=14	=14	=14	=14	=14	=14	=14	=14	=14	=14	=14	=14	=14	=14	=14	=14	=14	=14	=14
4G\	(2G\	-no-	-ia-	-trzno-	2d\	-no-	-ia-	-trzno-	2.g\	-no-	-ia-	-trzno-	(2b\	-no-	-ia-	-trzno-	4dd\	8bb\L
.	.	.	.	.	.	.	.	.	.	.	.	.	.	.	.	.	.	8gg\
4G\	.	.	.	.	.	.	.	.	.	.	.	.	.	.	.	.	8gg\L	8aa\
.	.	.	.	.	.	.	.	.	.	.	.	.	.	.	.	.	8gg\J	8bb\J
4E\	4E\)	.	.	.	4c\	-żek	-cioł	-śći	.	.	.	.	4cc\)	.	.	.	4g/	8ccc\L
.	.	.	.	.	.	.	.	.	.	.	.	.	.	.	.	.	.	8gg\
4D\	4D\	-zek	-ciół	-sći	4r	.	.	.	4g\	-zek	-ciół	-ści	4b\	-żek	-cioł	-śći	4gg\	8bb\
.	.	.	.	.	.	.	.	.	.	.	.	.	.	.	.	.	.	8gg\J
=15	=15	=15	=15	=15	=15	=15	=15	=15	=15	=15	=15	=15	=15	=15	=15	=15	=15	=15
4C/	2C/	pod	pa-	mo-	2e\	pod	pa-	mo-	2g\	pod	pa-	mo-	2a\	pod	pa-	mo-	4ee\	8aa\L
.	.	.	.	.	.	.	.	.	.	.	.	.	.	.	.	.	.	8aasS\
4c\	.	.	.	.	.	.	.	.	.	.	.	.	.	.	.	.	4ee\	8bb\
.	.	.	.	.	.	.	.	.	.	.	.	.	.	.	.	.	.	8ccc\J
4d\	4D/	two-	-nu-	-ich	4A\	two-	-nu-	-ich	4f#\	two-	-nu-	-ich	4dd\	two-	-nu-	-ich	8f#/L	8dd\L
.	.	.	.	.	.	.	.	.	.	.	.	.	.	.	.	.	8f#/	8ddsS\
4D/	4D/	-je	-iąc	wy-	4c\	-je	-iąc	wy-	4f#\	-je	-iąc	wy-	4f#/	-ie	-iąc	wy-	8g/	8ee\
.	.	.	.	.	.	.	.	.	.	.	.	.	.	.	.	.	8a/J	8ff#\J
!	!	!	!	!	!	!	!	!	!LO:LB:g=original	!	!	!	!LO:LB:g=original	!	!	!	!	!
=16	=16	=16	=16	=16	=16	=16	=16	=16	=16	=16	=16	=16	=16	=16	=16	=16	=16	=16
*	*	*	*	*	*	*	*	*	*	*	*	*	*	*	*	*	*	*2\right
4r	2D\	no-	two-	-da-	2c\	no-	two-	-da-	2f#/	No-	two-	-da-	2a\	No-	two-	-da-	(2cc\	(2aa\
4D\	.	.	.	.	.	.	.	.	.	.	.	.	.	.	.	.	.	.
4GG/	4GG/	-gi	-ich	-łem	4B\	-gi	-ich	-łem	4g/	-gi	-ich	-łem	4g\	-gi	-ich	-łem	4b\)	4gg\)
!LO:TX:a:t=Da \nCapo	!	!	!	!	!LO:TX:b:t=DCapo	!	!	!	!LO:TX:a:t=Da Capo.	!	!	!	!LO:TX:a:t=Da Capo.	!	!	!	!LO:TX:a:t=Da Capo.	!LO:TX:a:t=Da Capo
4r	4r	.	.	.	4r	.	.	.	4r	.	.	.	4r	.	.	.	4r	4r
==	==	==	==	==	==	==	==	==	==	==	==	==	==	==	==	==	==	==
*-	*-	*-	*-	*-	*-	*-	*-	*-	*-	*-	*-	*-	*-	*-	*-	*-	*-	*-
!!!system-decoration: [(s1,s2)][(s3,s4,s5,s6)]s7
!!!RDF**kern: > = above
!!!RDF**kern: < = below
!!!AIN: 1 bass 3 empty 1 tenor 2 vox
!!!ENC: Berenika Jozajtis
!!!END: 2020-09-29
!!!ENC: Leszek Kubiak
!!!END: 2021-11-19
